!!!!SEGMENT: pl-kk--kk-i-38--004_lasso-orlando-di--benedicite-omnia-opera-domini.krn
!!!cenid: 16xx:1254
!!!COM: Lasso, Orlando di
!!!COM-rismid: pe506
!!!CDT: ~1532-1594/06/14
!!!CNT: French-Flemish
!!!OTL: Benedicite omnia opera domini
!!!PDT:
!!!AGN: Sacred
!!!SMS-siglum: PL-Kk
!!!SMS-shelfmark: Kk.I.38
!!!SMS-shelfwork: 004 W
!!!SMS-variant:
!!!SMS-altvar:
!!!NIFC-rismid: 1001154371
!!!system-decoration: [(s1)]
**kern	**text
*I"Baſso Ripieno.	*
*I'B.	*
*clefF4	*
*k[b-]	*
*M2/1	*
!LO:TX:a:Bi:t=Lib. 1. Fol. 15.	!
!LO:TX:t=P:problem:w źródle bemole przy kluczu w dwóch oktawach	!
!LO:TX:t=P:problem:kreska pseudotaktowa	!
1r	.
0F	Be-
=1-	=1-
.	.
1F	-ne-
=2-	=2-
1.C	-di-
2C/	-ci-
=3-	=3-
!LO:TX:t=P:problem:kreska pseudotaktowa	!
1F	-te
1.D	om-
=4-	=4-
.	.
2D/	-ni-
!LO:TX:t=P:problem:kreska pseudotaktowa	!
1D	-a
=5-	=5-
1.BB-	o-
2BB-/	-pe-
=6-	=6-
1BB-	-ra
1.B-	Do-
=7-	=7-
.	.
!LO:TX:t=P:problem:2\right:global	!
2B-\	-mi-
!LO:TX:t=P:problem:kreska pseudotaktowa	!
1A	-ni
=8-	=8-
2.F\	Do-
4E\	.
2.D/	.
4D/	-mi-
=9-	=9-
0C	-no,
=10-	=10-
2r	.
2F\	Lau-
0F	-da-
=11-	=11-
.	.
2BB-,/	-te
!LO:TX:t=P:problem:kreska pseudotaktowa	!
2BB-/	et
=12-	=12-
2D\	su-
2D\	-per
2A\	ex-
2A\	-al-
=13-	=13-
2B-\	-ta-
!LO:TX:t=P:problem:kreska pseudotaktowa	!
2B-\	-te
1c	e-
=14-	=14-
!LO:TX:t=P:problem:kreska pseudotaktowa	!
1C	-um
!LO:TX:t=P:problem:kreska pseudotaktowa	!
1r	.
=15-	=15-
1GG	et
2BB-/	su-
2BB-/	-per
=16-	=16-
2D\	ex-
2D\	-al-
2F\	-ta-
2F\	-te
=17-	=17-
*lig	*
1A	E-
1G	.
*Xlig	*
=18-	=18-
2.D/	.
4C/	.
2BB-,/	-um
2C/	in
=19-	=19-
1.G	s(ae)-
2GG/	-cu-
=20-	=20-
!LO:TX:t=P:problem:kreska pseudotaktowa	!
0C	-la
=21-	=21-
0r	.
=22-	=22-
0r	.
=23-	=23-
0r	.
=24-	=24-
0r	.
=25-	=25-
0r	.
=26-	=26-
!LO:TX:t=P:problem:kreska pseudotaktowa	!
0F	Be-
=27-	=27-
1F	-ne-
1.C	-di-
=28-	=28-
.	.
2C/	-ci-
!LO:TX:t=P:problem:kreska pseudotaktowa	!
1C	-te
=29-	=29-
0G	c(ae)-
=30-	=30-
1D	-li
1.G	Do-
=31-	=31-
.	.
2G\	-mi-
0F	-no,
=32-	=32-
!LO:TX:t=P:problem:kreska pseudotaktowa	!
.	.
1r	.
=33-	=33-
0r	.
=34-	=34-
0r	.
=35-	=35-
0r	.
=36-	=36-
1F	qu(ae)
1G	su-
=37-	=37-
2A\	-per
1B-	C(ae)-
!LO:TX:t=P:problem:kreska pseudotaktowa	!
2A\	-los
=38-	=38-
!LO:TX:t=P:problem:kreska pseudotaktowa	!
!LO:SIC:v:t=custos F	!
1G	sunt
2.F\	Do-
4E\	.
=39-	=39-
2D/	.
2D/	-mi-
!LO:TX:t=P:problem:kreska pseudotaktowa	!
1C,	-no;
=40-	=40-
1C	be-
2C/	-ne-
1C/	-di-
=41-	=41-
.	.
2C/	-ci-
!LO:TX:t=P:problem:kreska pseudotaktowa	!
1GG	-te
=42-	=42-
2.D\	o-
4E\	.
1F	.
=43-	=43-
2C,/	-mnes
2F\	Vir-
2BB-/	-tu-
!LO:TX:t=P:problem:kreska pseudotaktowa	!
2BB-/	-tes
=44-	=44-
2.F\	Do-
4E\	.
2D/	.
2C/	-mi-
=45-	=45-
1D,	-ni
2.GG/	Do-
4AA/	.
=46-	=46-
2BBn/	.
2C/	-mi-
!LO:TX:t=P:problem:kreska pseudotaktowa	!
1GG	-no.
=47-	=47-
2r	.
1C	Be-
2C/	-ne-
=48-	=48-
2G\	-di-
2GG/	-ci-
!LO:TX:t=P:problem:kreska pseudotaktowa	!
1C	-te
=49-	=49-
0r	.
=50-	=50-
2r	.
1F	Sol,
2C/	et
=51-	=51-
2D/	lu-
2AA/	-na
2BB-/	D(o-
2C/	-mi)-
=52-	=52-
!LO:TX:t=P:problem:kreska pseudotaktowa	!
0FF	-no
=53-	=53-
0r	.
=54-	=54-
0r	.
=55-	=55-
0r	.
=56-	=56-
!LO:TX:t=P:problem:kreska pseudotaktowa	!
1r	.
1F	be-
=57-	=57-
1F	-ne-
2.BB-/	-di-
4BB-/	-ci-
=58-	=58-
!LO:TX:t=P:problem:kreska pseudotaktowa	!
1BB-	-te
1F	im-
=59-	=59-
!LO:TX:t=P:problem:kreska pseudotaktowa	!
1C	-ber
1GG	et
=60-	=60-
1D	ros
2.C/	Do-
4BB-/	.
=61-	=61-
2AA/	.
2AA/	-mi-
!LO:TX:t=P:problem:kreska pseudotaktowa	!
1GG	-no.
=62-	=62-
0r	.
=63-	=63-
1r	.
1F	Be-
=64-	=64-
2D/	-ne-
4BB-/	-di-
4C/	.
4D/	.
4E/	.
1F\	.
=65-	=65-
.	.
2E\	-ci-
!LO:TX:t=P:problem:kreska pseudotaktowa	!
1F,	-te
=66-	=66-
1BB-	om-
2BB-/	-nis
1B-\	Spi-
=67-	=67-
.	.
!LO:TX:t=P:problem:kreska pseudotaktowa	!
2BB-/	-ri-
1F,	-t(us)
=68-	=68-
2.D/	De-
4C/	.
1BB-	.
=69-	=69-
0C,	-i
=70-	=70-
1.BB-	Do-
2BB-/	-mi-
=71-	=71-
0F;	-no.
=72||	=72||
*M2/1	*
!LO:TX:b:i:t=2da\nparte	!
0r	.
=73-	=73-
1r	.
1C	Be-
=74-	=74-
2C/	-ne-
2D\	-di-
2E\	-ci-
!LO:TX:t=P:problem:kreska pseudotaktowa	!
2F\	-te
=75-	=75-
2.D/	Fri-
4C/	.
2BB-/	.
!LO:TX:t=P:problem:kreska pseudotaktowa	!
2GG/	-gus
=76-	=76-
1G	et
2A\	(ae)s-
2G\	-tus
=77-	=77-
4F\	Do-
4E\	.
4E\	.
8D\L	.
8C\J	.
2D/	.
2D/	-mi-
=78-	=78-
!LO:TX:t=P:problem:kreska pseudotaktowa	!
0C	-no
=79-	=79-
0r	.
=80-	=80-
0r	.
=81-	=81-
0r	.
=82-	=82-
0r	.
=83-	=83-
!LO:TX:t=P:problem:kreska pseudotaktowa	!
1C	Be-
2C/	-ne-
2.C/	-di-
=84-	=84-
.	.
4C/	-ci-
!LO:TX:t=P:problem:kreska pseudotaktowa	!
2C/	-te
1F	ro-
=85-	=85-
2BB-/	-res
1B-	et
2A\	pru-
=86-	=86-
1G	-i-
!LO:TX:t=P:problem:kreska pseudotaktowa	!
1F	-na
=87-	=87-
2.C/	D(o-
4C/	-mi)-
!LO:TX:t=P:problem:kreska pseudotaktowa	!
1GG	-no.
=88-	=88-
0r	.
=89-	=89-
!LO:TX:t=P:problem:kreska pseudotaktowa	!
1r	.
1C	be-
=90-	=90-
2C/	-ne-
2.BB-/	-di-
4BB-/	-ci-
!LO:TX:t=P:problem:kreska pseudotaktowa	!
2D\	-te
=91-	=91-
1GG	ge-
1C,	-lu
=92-	=92-
1AA	et
2BB-/	fri-
!LO:TX:t=P:problem:kreska pseudotaktowa	!
2GG/	-gus
=93-	=93-
2.AA/	Do-
4BB-/	.
2C/	.
2C/	-mi-
=94-	=94-
2FF,/	-no.
!LO:TX:t=P:problem:kreska pseudotaktowa	!
2F\	Be-
2F\	-ne-
2.F\	-di-
=95-	=95-
.	.
4F\	-ci-
!LO:TX:t=P:problem:kreska pseudotaktowa	!
2F\	-te
2.C/	gla-
4C/	-ci-
=96-	=96-
!LO:TX:t=P:problem:kreska pseudotaktowa	!
1F	-es
1D	et
=97-	=97-
1AA	ni-
!LO:TX:t=P:problem:kreska pseudotaktowa	!
1D	-ves
=98-	=98-
2.B-\	Do-
4A\	.
2G\	.
2G\	-mi-
=99-	=99-
!LO:TX:t=P:problem:kreska pseudotaktowa	!
0F	-no.
=100-	=100-
0r	.
=101-	=101-
0r	.
=102-	=102-
0r	.
=103-	=103-
0r	.
=104-	=104-
0r	.
=105-	=105-
!LO:TX:t=P:problem:kreska pseudotaktowa	!
1C	Be-
2C/	-ne-
2.F\	-di-
=106-	=106-
.	.
4F\	-ci-
!LO:TX:t=P:problem:kreska pseudotaktowa	!
2F\	-te
0C	lux
=107-	=107-
.	.
1r	.
=108-	=108-
*M3/2	*
1F	et
2D/	Te-
=109-	=109-
2D/	-ne-
2C/	.
2BB-/	-br(ae)
=110-	=110-
1F	Do-
2C/	-mi-
=111-	=111-
*M2/1	*
1GG,	-no.
1G	be-
=112-	=112-
2F\	-ne-
2.BB-/	-di-
4BB-/	-ci-
!LO:TX:t=P:problem:kreska pseudotaktowa	!
2BB-/	-te
=113-	=113-
2r	.
2.F\	ful-
4C/	-gu-
!LO:TX:t=P:problem:kreska pseudotaktowa	!
2C/	-ra
=114-	=114-
2r	.
2.G\	/ful-
4GG/	-gu-
!LO:TX:t=P:problem:kreska pseudotaktowa	!
2GG/	-ra/
=115-	=115-
1C	et
1G	nu-
=116-	=116-
1A	-bes
2.G\	Do-
4G\	-mi-
=117-	=117-
!LO:TX:t=P:problem:kreska pseudotaktowa	!
1C,	-no.
1C	be-
=118-	=118-
2E-X\	-ne-
1E-	-di-
!LO:TX:t=P:problem:kreska pseudotaktowa	!
2E-\	-cat
=119-	=119-
1B-	Ter-
!LO:TX:t=P:problem:kreska pseudotaktowa	!
1BB-	-ra
=120-	=120-
2.D/	.
4C/	do-
2BB-/	.
2BB-/	-mi-
=121-	=121-
2.AA/	.
4GG/	.
!LO:TX:t=P:problem:kreska pseudotaktowa	!
1FF	-num;
=122-	=122-
0r	.
=123-	=123-
2r	.
4F\	lau-
!LO:TX:t=P:problem:kreska pseudotaktowa	!
4G\	.
4A\	.
4F\	.
2B-\	.
=124-	=124-
!LO:TX:t=P:problem:kreska pseudotaktowa	!
1A	-det,
1r	.
=125-	=125-
2r	.
4D\	lau-
!LO:TX:t=P:problem:kreska pseudotaktowa	!
4E\	.
4F\	.
4D\	.
!LO:TX:t=P:problem:kreska pseudotaktowa	!
2G\	.
=126-	=126-
2F,\	-det
2F\	et
1A	su-
=127-	=127-
2F\	-per
2F\	ex-
2B-\	-al-
!LO:TX:t=P:problem:kreska pseudotaktowa	!
2B-\	-tet
=128-	=128-
2.G\	e-
4A\	.
1B-	.
=129-	=129-
!LO:TX:t=P:problem:kreska pseudotaktowa	!
0F,	-um
=130-	=130-
1BB-	in
1.F	s(ae)-
=131-	=131-
.	.
2F\	-cu-
1C;	-la.
==	==
*-	*-
!!title: @{OTL};
!!!RDF**kern: > = above
!!!RDF**kern: < = below
!!!RDF**kern: | = vertical stroke
!!!RDF**kern: N = linked
!!!RDF**kern: i = editorial accidental
!!!RDF**kern: l = terminal long
!!!EED: Wojciech Jakubiak-Danek
!!!EST: 2021-07-28
!!!URL-scan: http://repozytorium.nifc.pl/skany/pl-kk-nut--i-38
!!!ONB-nifc: Lib. 1. Fol. 15. 2da parte (jeśli występuje), należy do utworu tytułowego
!!!ENC: Mateusz Solarz
!!!END: 2021-07-01
